X: 39855
T: This Is My Love, Do You Like Her?
R: jig
M: 6/8
K: Adorian
|:ABA AGE|c3 d3|ege edB|~g3 e2a|
age g2e|dBG GAB|cBA BGE|ABA A3:|
|:aba age|~g3 ged|e2a age|~g3 e2a|
age g2e|dBG GAB|cBA BGE|ABA A3:|

